static/img/home/cli.svg

<svg fill="none" viewBox=".46 .3 43.21 43.21" xmlns="http://www.w3.org/2000/svg"><circle cx="22.0639" cy="21.9047" fill="#171e2d" r="21.6027"/><g fill="#22fdb4"><path d="m21.2845 21.6145v-2.0711l-9.8377-4.5449v2.5529l6.9109 2.9628v.1295l-6.9109 2.9628v2.5529z"/><path d="m32.6809 26.4255h-9.5141v2.0783h9.5141z"/></g></svg>

<svg width="44" height="44" viewBox="0 0 44 44" fill="none" xmlns="http://www.w3.org/2000/svg">
<circle cx="22.0639" cy="21.9047" r="21.6027" fill="#171E2D"/>
<path d="M21.2845 21.6145V19.5434L11.4468 14.9985V17.5514L18.3577 20.5142V20.6437L11.4468 23.6065V26.1594L21.2845 21.6145Z" fill="#22FDB4"/>
<path d="M32.6809 26.4255H23.1668V28.5038H32.6809V26.4255Z" fill="#22FDB4"/>
</svg>
